!!!OTL: FREIHEIT DIE ICH MEINE DIE MEIN HERZ ERFUELLT
!!!ARE: Europa, Mitteleuropa, Deutschland
!!!SCT: B0048
!!!YEM: Copyright 1995, estate of Helmut Schaffrath.
**kern
*ICvox
*Ivox
*M4/4
*k[]
*C:
=1
{4G
4E
4c
4G
=2
2A
4G
4r}
=3
{4e
4c
4B
8c
8e
=4
2d
2r}
=5
{4G
4E
4c
4G
=6
2A
4G
4r}
=7
{4e
4c
4B
8c
8e
=8
2d
2r}
=9
{4.d
8c
4B
4G
=10
2e
4c}
{8d
8e
=11
2f
2e
=12
2d
2r}
=13
{4e
4d
4c
4B
=14
4A
4f
4e
4d}
=15
{2c
2B
=16
2c
2r}
==
!!!AGN: Kriegs -, Sieges -, Soldaten - Lied
!!!ONB: ESAC (Essen Associative Code) Database: BOEHME
!!!AMT: simple quadruple
!!!AIN: vox
!!!EED: Helmut Schaffrath
!!!EEV: 1.0
*-
